build/web/dist/spark/icons/TargetFill.svg

<svg viewBox="0 0 24 24" xmlns="http://www.w3.org/2000/svg" data-title="TargetFill" fill="currentColor" stroke="none">
  <path fill-rule="evenodd" clip-rule="evenodd" d="M21 10.9997H19.1583C18.94 9.44365 18.221 8.00099 17.1099 6.88989C15.9988 5.7788 14.5561 5.05969 13 4.8414V2.99977C13 2.73455 12.8946 2.48016 12.7071 2.29262C12.5196 2.10509 12.2652 1.99976 12 1.99976C11.7348 1.99976 11.4804 2.10509 11.2929 2.29262C11.1054 2.48016 11 2.73455 11 2.99977V4.8414C9.44291 5.05932 7.99908 5.77808 6.88658 6.88908C5.77408 8.00008 5.05333 9.44297 4.8333 10.9997H3.00001C2.73479 10.9997 2.4804 11.1051 2.29287 11.2927C2.10533 11.4802 2 11.7345 2 11.9998C2 12.265 2.10533 12.5193 2.29287 12.7068C2.4804 12.8944 2.73479 12.9998 3.00001 12.9998H4.8333C5.05296 14.5575 5.77336 16.0015 6.88576 17.1139C7.99816 18.2263 9.44223 18.9467 11 19.1664V20.9997C11 21.265 11.1054 21.5193 11.2929 21.7068C11.4804 21.8944 11.7348 21.9998 12 21.9998C12.2652 21.9998 12.5196 21.8944 12.7071 21.7068C12.8946 21.5193 13 21.265 13 20.9997V19.1664C14.5568 18.9464 15.9996 18.2257 17.1106 17.1132C18.2216 16.0007 18.9404 14.5568 19.1583 12.9998H21C21.2652 12.9998 21.5195 12.8944 21.7071 12.7068C21.8946 12.5193 22 12.265 22 11.9998C22 11.7345 21.8946 11.4802 21.7071 11.2927C21.5195 11.1051 21.2652 10.9997 21 10.9997ZM12 14.0247C11.6044 14.0247 11.2178 13.9074 10.8889 13.6877C10.56 13.4679 10.3036 13.1556 10.1522 12.7901C10.0008 12.4247 9.96126 12.0225 10.0384 11.6346C10.1156 11.2466 10.3061 10.8902 10.5858 10.6105C10.8655 10.3308 11.2219 10.1403 11.6098 10.0632C11.9978 9.98599 12.3999 10.0256 12.7654 10.177C13.1308 10.3284 13.4432 10.5847 13.663 10.9136C13.8827 11.2425 14 11.6292 14 12.0247C14.0033 12.2891 13.954 12.5514 13.8549 12.7965C13.7557 13.0416 13.6088 13.2645 13.4226 13.4522C13.2365 13.64 13.0148 13.7887 12.7706 13.8899C12.5263 13.991 12.2644 14.0426 12 14.0414V14.0247Z"/>
</svg>

<svg viewBox="0 0 24 24" xmlns="http://www.w3.org/2000/svg" data-title="TargetFill" fill="currentColor" stroke="none">
  <path d="m21,11h-1.84c-.22-1.56-.94-3-2.05-4.11-1.11-1.11-2.55-1.83-4.11-2.05v-1.84c0-.27-.11-.52-.29-.71-.19-.19-.44-.29-.71-.29s-.52.11-.71.29c-.19.19-.29.44-.29.71v1.84c-1.56.22-3,.94-4.11,2.05s-1.83,2.55-2.05,4.11h-1.83c-.27,0-.52.11-.71.29-.19.19-.29.44-.29.71s.11.52.29.71c.19.19.44.29.71.29h1.83c.22,1.56.94,3,2.05,4.11s2.56,1.83,4.11,2.05v1.83c0,.27.11.52.29.71.19.19.44.29.71.29s.52-.11.71-.29c.19-.19.29-.44.29-.71v-1.83c1.56-.22,3-.94,4.11-2.05,1.11-1.11,1.83-2.56,2.05-4.11h1.84c.27,0,.52-.11.71-.29s.29-.44.29-.71-.11-.52-.29-.71c-.19-.19-.44-.29-.71-.29Zm-9,3.03c-.4,0-.78-.12-1.11-.34-.33-.22-.59-.53-.74-.9-.15-.37-.19-.77-.11-1.16.08-.39.27-.74.55-1.02.28-.28.64-.47,1.02-.55.39-.08.79-.04,1.16.11.37.15.68.41.9.74.22.33.34.72.34,1.11,0,.26-.05.53-.15.77-.1.25-.25.47-.43.66-.19.19-.41.34-.65.44-.24.1-.51.15-.77.15v-.02Z"/>
</svg>
